logo/datocms-icon.svg

<?xml version="1.0" encoding="UTF-8"?>
<svg width="256px" height="259px" viewBox="0 0 256 259" version="1.1" xmlns="http://www.w3.org/2000/svg" xmlns:xlink="http://www.w3.org/1999/xlink">
    <title>Shape</title>
    <defs>
        <linearGradient x1="0%" y1="49.9993686%" x2="100%" y2="49.9993686%" id="linearGradient-1">
            <stop stop-color="#FF593D" offset="0%"></stop>
            <stop stop-color="#FF7751" offset="100%"></stop>
        </linearGradient>
    </defs>
    <g stroke="none" stroke-width="1" fill="none" fill-rule="evenodd">
        <path d="M128.001627,0.65257119 L0,0.65257119 L0,258.29879 L128.001627,258.29879 C192.018707,258.29879 256,200.619326 256,129.493574 C256,58.3678228 192.018707,0.65257119 128.001627,0.65257119 Z M128.001627,188.012432 C95.6722097,187.999835 69.474068,161.781785 69.4860428,129.452368 C69.4980258,97.122951 95.7155892,70.9243224 128.045007,70.9356973 C160.374424,70.9470795 186.57354,97.1641565 186.562765,129.493574 C186.562765,145.021331 180.392741,159.912743 169.408993,170.888558 C158.425245,181.864373 143.529379,188.024501 128.001627,188.012432 Z" fill="url(#linearGradient-1)" fill-rule="nonzero"></path>
    </g>
</svg>

<svg viewBox="0 0 256 259" xmlns="http://www.w3.org/2000/svg"><defs><linearGradient id="a" x1="0%" x2="100%" y1="49.999%" y2="49.999%"><stop offset="0%" stop-color="#FF593D"/><stop offset="100%" stop-color="#FF7751"/></linearGradient></defs><path fill="url(#a)" d="M128 .65H-.01v257.64h128c64.01 0 127.99-57.68 127.99-128.81s-63.99-128.85-128-128.85ZM128 188c-32.33-.02-58.53-26.24-58.52-58.57 .01-32.33 26.22-58.53 58.55-58.52 32.32.01 58.52 26.22 58.51 58.55 0 15.52-6.18 30.41-17.16 41.39 -10.99 10.97-25.88 17.13-41.41 17.12Z"/></svg>
